X: 40258
T: To Daun't On Me
R: strathspey
M: 4/4
K: Edorian
|:G<A|B2E2E2A<G|F>GE<FD2d<e|f>ed<B d>BA<F|B2E2E2:|
|:F<E|D2d2d2B<c|d>ed<B A3d|B2e2e2e<f|g>fe<dB2d<e|
[1 f>gf>e d>ed<B|A>BA>FA2d<e|f>ed<B d>BA<F|B2E2E2:|
[2 f>ag>f e>gf>e|d>ed<BA2(3Ade|f>ed<B d>BA<F|B2E2E2||

